static/assets/img/icons/theme/text/code.svg

<svg height="24" viewBox="0 0 24 24" width="24" xmlns="http://www.w3.org/2000/svg"><g fill="none" fill-rule="evenodd"><path d="m0 0h24v24h-24z" opacity="0"/><path d="m15.2718029 8.68536757c-.3785165-.40217375-.3593385-1.03504822.0428353-1.41356469.4021737-.37851647 1.0350482-.35933846 1.4135647.04283529l4 4.25000003c.3624.38505.3624.9856794 0 1.3707294l-4 4.25c-.3785165.4021737-1.011391.4213517-1.4135647.0428353-.4021738-.3785165-.4213518-1.011391-.0428353-1.4135647l3.3549509-3.5646353zm-6.54360578-.00000287-3.35495087 3.5646353 3.35495087 3.5646353c.37851647.4021738.35933846 1.0350482-.04283529 1.4135647s-1.03504822.3593384-1.4135647-.0428353l-4-4.25c-.36240001-.38505-.36240001-.9856794 0-1.3707294l4-4.25c.37851648-.40217375 1.01139095-.42135176 1.4135647-.04283529s.42135176 1.01139094.04283529 1.41356469z" fill="#000" fill-rule="nonzero"/></g></svg>

<svg width="24px" height="24px" viewBox="0 0 24 24" version="1.1" xmlns="http://www.w3.org/2000/svg" xmlns:xlink="http://www.w3.org/1999/xlink">
    <title>Icon For Code</title>
    <g stroke="none" stroke-width="1" fill="none" fill-rule="evenodd">
        <rect opacity="0" x="0" y="0" width="24" height="24"></rect>
        <path d="M15.2718029,8.68536757 C14.8932864,8.28319382 14.9124644,7.65031935 15.3146382,7.27180288 C15.7168119,6.89328641 16.3496864,6.91246442 16.7282029,7.31463817 L20.7282029,11.5646382 C21.0906029,11.9496882 21.0906029,12.5503176 20.7282029,12.9353676 L16.7282029,17.1853676 C16.3496864,17.5875413 15.7168119,17.6067193 15.3146382,17.2282029 C14.9124644,16.8496864 14.8932864,16.2168119 15.2718029,15.8146382 L18.6267538,12.2500029 L15.2718029,8.68536757 Z M8.72819712,8.6853647 L5.37324625,12.25 L8.72819712,15.8146353 C9.10671359,16.2168091 9.08753558,16.8496835 8.68536183,17.2282 C8.28318808,17.6067165 7.65031361,17.5875384 7.27179713,17.1853647 L3.27179713,12.9353647 C2.90939712,12.5503147 2.90939712,11.9496853 3.27179713,11.5646353 L7.27179713,7.3146353 C7.65031361,6.91246155 8.28318808,6.89328354 8.68536183,7.27180001 C9.08753558,7.65031648 9.10671359,8.28319095 8.72819712,8.6853647 Z" fill="#000000" fill-rule="nonzero"></path>
    </g>
</svg>
